src/images/crown.svg

<svg width="20" height="13" viewBox="0 0 20 13" fill="none" xmlns="http://www.w3.org/2000/svg">
<path fill-rule="evenodd" clip-rule="evenodd" d="M9.99996 3.69335L0.356822 9.67337L0 9.68518L3.06273 0.00012207L5.13652 0.28737L3.33903 5.68315L9.8777 1.8054H9.99996H10.1222L12.1553 3.0111L11.4422 4.55334L9.99996 3.69335ZM10.0647 13.0002L9.84945 12.9999L6.5883 6.34887L8.33968 5.30703L9.98037 8.78887L11.9235 4.84353L11.9222 4.84265L12.6544 3.30719L16.661 5.68315L14.8635 0.28737L16.9374 0.00012207L20 9.68518L19.6433 9.67337L13.6381 5.91607L10.0647 13.0002Z" fill="#0075FF"/>
</svg>

<svg width="20" height="13" fill="none" xmlns="http://www.w3.org/2000/svg"><path fill-rule="evenodd" clip-rule="evenodd" d="M10 3.693L.355 9.673 0 9.685 3.062 0l2.074.287-1.798 5.396 6.539-3.878h.245l2.033 1.206-.713 1.542-1.443-.86zM10.063 13h-.215L6.588 6.349l1.751-1.042 1.64 3.482 1.944-3.946h-.002l.733-1.536 4.006 2.376L14.863.287 16.937 0l3.062 9.685-.356-.012-6.006-3.757L10.064 13z" fill="#0075FF"/></svg>
